X:16
%%score 1 2
T: Shall I Go Walk The Woods So Wild?
M:6/8
L:1/8
K:Bb
V:1 clef-treble
V:2 clef-bass octave=-1
V:1
[BD]BB B2[FB,]| G2F D3 & B,6| EFG A2G & B,3 E3| c2B (AG)F & F3 C3|
w: Shall I walk to the woods so wild, Wandering,** wand'ring* here and there,* As
V:2
B,3-B,2 D| (E2D B,3)| G,3 C2B,| A,3 F,3|
V:1
[B,B]2B B2[B,F]|G2F D2[DB]&B,3-B,2x| [EA]2G [B,F]2[B,D]| [B,E]2C [A,C]3||
w: I was once full sore beguil'd,* A-las! for love I die with woe. 
V:2
D3-D2D|E2D B,2B,|C3 D2G| C3 F3||

